X:1
T:Nāc, mans Jēzu (in G)
T:Christian F. Witt (1660-1716) mel.: Psalmodia Sacra, 1715; tune: STUTTGART adapt. Henry J. Gauntlett, 1861
T:Come, thou long-expected Jesus text: Charles Wesley, 1744 atdz. Janīna Babre
T:Nāc, mans Jēzu (in G)
C:Christian F. Witt (1660-1716)
C:mel.: Psalmodia Sacra, 1715;
C:tune: STUTTGART
C:adapt. Henry J. Gauntlett, 1861
Z:Come, thou long-expected Jesus
Z:text: Charles Wesley, 1744
Z:atdz. Janīna Babre
%%score [ ( 1 2 ) ( 3 4 ) ]
L:1/8
Q:1/4=100
M:4/4
K:F
V:1 treble nm="SOPRANO ALTO" snm="S. A."
V:2 treble 
V:3 bass nm="TENOR BASS" snm="T. B."
V:4 bass 
V:1
"^3.""^2.""^1."!f!"^Moderato" C2 C2 F2 F2 | G2 G2 A2 F2 | c2 c2 d2 B2 | G2 c2 A4 | %4
w: Nāc, mans Jē- zu,|il- gi gai- dīts,|dzi- mis tau- tas|at- brī- vot,|
w: Vi- su tau- tu|spēks un stip- rums,|vi- su ļau- žu|ce- rī- ba:|
w: Dzi- mi, lai mūs|at- pes- tī- tu,|Cil- vēks – un|Ka- ra- li,|
!mf! A2 A2 G2 A2 | F2 G2 F2 E2 |!p! F2 D2 C2 F2 | F2 E2 F4 ||!pp! F4 !fermata!F4 |] %9
w: 1. ka va- žas|no mums rai- sīt,|sa- vu mie- ru|starp mums nest.||
w: 2. pil- di Tu|vi- sas sir- dis,|kas pēc Te- vis|il- go- jas.||
w: 3. mi, val- dī-|tu lai mū- sos,|de- be- sīs mūs|va- dī- tu.|A- men.|
[K:G][M:4/4]"^1.""^2.""^3."!f!"^Moderato"[Q:1/4=100] D2 D2 G2 G2 | A2 A2 B2 G2 | d2 d2 e2 c2 | %12
w: Nāc, mans Jē- zu,|il- gi gai- dīts,|dzi- mis tau- tas|
w: Vi- su tau- tu|spēks un stip- rums,|vi- su ļau- žu|
w: Dzi- mi, lai mūs|at- pes- tī- tu,|Cil- vēks – un|
 A2 d2 B4 |!mf! B2 B2 A2 B2 | G2 A2 G2 F2 |!p! G2 E2 D2 G2 | G2 F2 G4 ||!pp! G4 !fermata!G4 |] %18
w: at- brī- vot,|1. ka va- žas|no mums rai- sīt,|sa- vu mie- ru|starp mums nest.||
w: ce- rī- ba:|2. pil- di Tu|vi- sas sir- dis,|kas pēc Te- vis|il- go- jas.||
w: Ka- ra- li,|3. mi, val- dī-|tu lai mū- sos,|de- be- sīs mūs|va- dī- tu.|A- men.|
V:2
 C2 C2 A,2 A,2 | D2 C2 C2 C2 | G2 F2 F2 F2 | F2 E2 F4 | F2 F2 E2 E2 | D2 D2 C2 C2 | %6
 C2 B,2 A,2 (A,B,) | C2 C2 C4 || D4 C4 |][K:G][M:4/4] D2 D2 B,2 B,2 | E2 D2 D2 D2 | A2 G2 G2 G2 | %12
 G2 F2 G4 | G2 G2 F2 F2 | E2 E2 D2 D2 | D2 C2 B,2 (B,C) | D2 D2 D4 || E4 D4 |] %18
V:3
 A,2 G,2 F,2 F,2 | F,2 E,2 F,2 A,2 | C2 A,2 B,2 D2 | C2 C2 C4 | D2 A,2 B,2 A,2 | A,2 B,2 A,2 G,2 | %6
 F,2 F,2 F,2 F,2 | (G,A,) B,2 A,4 || B,4 A,4 |][K:G][M:4/4] B,2 A,2 G,2 G,2 | G,2 F,2 G,2 B,2 | %11
 D2 B,2 C2 E2 | D2 D2 D4 | E2 B,2 C2 B,2 | B,2 C2 B,2 A,2 | G,2 G,2 G,2 G,2 | (A,B,) C2 B,4 || %17
 C4 B,4 |] %18
V:4
 F,2 E,2 D,2 C,2 | B,,2 C,2 F,2 F,2 | E,2 F,2 B,,2 G,,2 | C,2 C,2 F,4 | D,2 D,2 D,2 ^C,2 | %5
 D,2 B,,2 C,2 C,2 | A,,2 B,,2 F,2 D,2 | C,2 C,2 [F,,F,]4 || B,,4 !fermata!F,4 |] %9
[K:G][M:4/4] G,2 F,2 E,2 D,2 | C,2 D,2 G,2 G,2 | F,2 G,2 C,2 A,,2 | D,2 D,2 G,4 | %13
 E,2 E,2 E,2 ^D,2 | E,2 C,2 D,2 D,2 | B,,2 C,2 G,2 E,2 | D,2 D,2 [G,,G,]4 || C,4 !fermata!G,4 |] %18

